X:51
T: Wiedersehen an der Bahre
N: Q1056G
O: Mitteleuropa, Deutschland / Frankreich, Elsass
N: Eingeklammerte Note weggelassen. Melodievergleich mit Q0056,
N: anderes Lied "Napoleonlied" .
R: Ballade, Abschied, Enttaeuschung, Tod, Selbstmord
M: 3/4
L: 1/16
K: G
D2E2F2 | G4F2E2G3G | D8
D2E2F2 | G2G2F2E2G4 | D6
G2F2A2 | d4c2d2B3B | B4A2
G2F2A2 | d4c2A2A2c2 | B4z2
G2F2A2 | d4c2d2B3B | B4A2
G2F2A2 | d4c2A2A2c2 | B4z4

